assets/images/sponsors-logos/avast.svg

<svg xmlns="http://www.w3.org/2000/svg" preserveAspectRatio="xMinYMin" viewBox="47 49 478 151" width="114pt">
  <g fill="none">
    <path d="M189.166 150.405c-4.9-4.613-8.15-5.256-12.123-8.166-12.161-8.905-15.094-27.568-5.759-39.735 2.669-3.479 5.989-5.932 9.725-8.415 3.882-2.58 7.422-6.323 9.256-10.212 3.684-7.81 2.809-17.685-2.907-25.056-5.439-7.013-13.992-10.671-23.336-8.95-4.407.811-8.115 2.634-11.855 5.973-3.842 3.43-4.822 6.952-9.219 11.261-6.935 6.797-15.249 10.129-25.1 9.458-4.826-.329-8.899-1.475-13.749-4.213-5.216-2.944-7.254-6.47-11.273-7.387-4.176-.953-8.818.211-11.602 3.41-3.796 4.361-3.296 8.423-1.646 13.637 1.56 4.93 2.896 9.711 3.153 14.918.252 5.12-.338 10.283-1.796 15.2-2.664 8.987-9.22 17.424-15.499 22.982-5.175 4.582-8.833 5.313-12.151 8.516-3.226 3.113-5.324 7.391-5.324 12.228 0 8.372 6.001 15.355 13.941 16.831 6.207 1.152 12.129-1.677 13.979-2.261 12.891-4.064 29.078-3.564 40.777-.153 9.673 2.821 18.041 7.818 25.847 14.144 3.755 3.043 6.603 7.133 10.552 9.949 10.152 7.246 27.684 8.652 38.895-5.799 7.59-9.785 9.414-26.674-2.786-38.16" fill="#ff7800"/>
    <path d="M140.951 97.625c-3.782 0-5.238 2.986-5.238 5.155v4.01c-3.904-5.251-9.178-8.745-16.381-8.745-5.881 0-10.895 2.368-15.045 7.103-4.149 4.735-6.224 10.45-6.224 17.145 0 6.668 2.075 12.372 6.224 17.108 4.15 4.76 9.164 7.139 15.045 7.139 7.72 0 13.066-4.205 16.381-8.781v4.314c0 1.932 1.553 5.002 5.194 5.002 3.598 0 5.116-3.133 5.116-5.154V102.78c0-3.32-2.843-5.155-5.072-5.155m-18.79 39.441c-7.881 0-13.556-7.188-13.556-14.93 0-8.176 5.843-14.892 13.556-14.892 8.324 0 13.556 7.455 13.556 14.892 0 7.862-5.582 14.93-13.556 14.93" fill="#fff"/>
    <path d="M342.296 88.508c-4.812-1.893-8.382 1.728-9.261 4.057l-17.382 45.588-17.38-45.588c-.88-2.33-4.45-5.95-9.262-4.057-5.193 2.043-4.943 6.927-4.07 9.113 0 0 14.479 38.015 19.171 50.301 2.698 7.065 7.991 8.562 11.54 8.568 3.55-.007 8.844-1.503 11.541-8.568 4.692-12.286 19.172-50.301 19.172-50.301.874-2.186 1.124-7.07-4.069-9.113M268.605 87.979c-5.24 0-7.257 4.136-7.257 7.142v5.555c-5.409-7.275-12.716-12.115-22.695-12.115-8.148 0-15.096 3.28-20.845 9.84-5.748 6.56-8.623 14.478-8.623 23.754 0 9.24 2.875 17.142 8.623 23.701 5.749 6.597 12.697 9.894 20.845 9.894 10.695 0 18.102-5.828 22.695-12.168v5.978c0 2.676 2.152 6.931 7.196 6.931 4.986 0 7.088-4.343 7.088-7.142V95.121c0-4.6-3.939-7.142-7.027-7.142m-26.249 54.862c-10.918 0-18.781-9.959-18.781-20.686 0-11.328 8.094-20.633 18.781-20.633 11.533 0 18.781 10.33 18.781 20.633 0 10.893-7.733 20.686-18.781 20.686M409.075 87.979c-5.24 0-7.257 4.136-7.257 7.142v5.555c-5.409-7.275-12.717-12.115-22.695-12.115-8.148 0-15.096 3.28-20.845 9.84-5.748 6.56-8.623 14.478-8.623 23.754 0 9.24 2.875 17.142 8.623 23.701 5.749 6.597 12.696 9.894 20.845 9.894 10.695 0 18.102-5.828 22.695-12.168v5.978c0 2.676 2.151 6.931 7.195 6.931 4.986 0 7.088-4.343 7.088-7.142V95.121c.001-4.6-3.938-7.142-7.026-7.142m-26.249 54.862c-10.918 0-18.781-9.959-18.781-20.686 0-11.328 8.094-20.633 18.781-20.633 11.533 0 18.78 10.33 18.78 20.633 0 10.893-7.732 20.686-18.78 20.686M428.14 148.6c-1.628-.878-2.881-2.757-2.881-5.261 0-3.381 2.629-6.137 6.138-6.137 1.253 0 2.38.376 3.256.876 6.386 4.259 13.024 6.388 19.037 6.388 6.512 0 10.269-2.756 10.269-7.139v-.25c0-5.136-7.013-6.637-14.777-9.015-9.77-2.758-20.666-7.019-20.666-19.669v-.25c0-12.524 10.396-20.164 23.547-20.164 7.014 0 14.401 2.003 20.788 5.385 2.128 1.127 3.633 3.131 3.633 5.761 0 3.508-2.756 6.139-6.263 6.139-1.252 0-2.005-.251-3.006-.752-5.386-2.756-10.896-4.51-15.529-4.51-5.886 0-9.268 2.756-9.268 6.514v.25c0 4.885 7.139 6.638 14.904 9.143 9.642 3.007 20.539 7.641 20.539 19.542v.25c0 13.902-10.772 20.791-24.546 20.791-8.393-.002-17.536-2.631-25.175-7.892zM491.593 137.218v-34.371h-2.889c-3.625 0-6.5-2.871-6.5-6.492 0-3.62 2.875-6.49 6.5-6.49h2.889V79.663c0-4.119 2.986-7.49 7.236-7.49 4.125 0 7.076 3.371 7.076 7.49v10.202h11.299c3.625 0 6.625 2.871 6.625 6.49 0 3.621-3 6.492-6.625 6.492h-11.299v31.997c0 5.867 3.424 8.241 8.549 8.241 1.75 0 3.25-.375 3.75-.375 3.375 0 6.375 2.746 6.375 6.242 0 2.747-1.875 4.993-4 5.868-3.25 1.121-6.375 1.746-10.375 1.746-11.125 0-18.611-4.867-18.611-19.348z" fill="#2d364c"/>
  </g>
</svg>

<?xml version="1.0" encoding="UTF-8" standalone="no"?>
<!DOCTYPE svg PUBLIC "-//W3C//DTD SVG 1.1//EN" "http://www.w3.org/Graphics/SVG/1.1/DTD/svg11.dtd">
<svg xmlns="http://www.w3.org/2000/svg" xmlns:xl="http://www.w3.org/1999/xlink" version="1.1" viewBox="47 49 478 151" width="478pt" height="151pt" xmlns:dc="http://purl.org/dc/elements/1.1/">
  <metadata> Produced by OmniGraffle 7.5 
    <dc:date>2017-12-14 17:53:05 +0000</dc:date>
  </metadata>
  <defs/>
  <g stroke="none" stroke-opacity="1" stroke-dasharray="none" fill="none" fill-opacity="1">
    <title>Canvas 1</title>
    <g>
      <title>Layer 1</title>
      <path d="M 189.166 150.405 C 184.266 145.792 181.016 145.149 177.043 142.239 C 164.882 133.334 161.949 114.671 171.284 102.504 C 173.953 99.025 177.273 96.572 181.009 94.089 C 184.891 91.509 188.431 87.766 190.265 83.877 C 193.949 76.067 193.074 66.192 187.358 58.821 C 181.919 51.808 173.366 48.15 164.022 49.871 C 159.615 50.682 155.907 52.505 152.167 55.844 C 148.325 59.274 147.345 62.796 142.948 67.105 C 136.013 73.902 127.699 77.234 117.848 76.563 C 113.022 76.234 108.949 75.088 104.099 72.35 C 98.883 69.406 96.845 65.88 92.826 64.963 C 88.65 64.01 84.008 65.174 81.224 68.373 C 77.428 72.734 77.928 76.796 79.578 82.01 C 81.138 86.94 82.474 91.721 82.731 96.928 C 82.983 102.048 82.393 107.211 80.935 112.128 C 78.271 121.115 71.715 129.552 65.436 135.11 C 60.261 139.692 56.603 140.423 53.285 143.626 C 50.059 146.739 47.961 151.017 47.961 155.854 C 47.961 164.226 53.962 171.209 61.902 172.685 C 68.109 173.837 74.031 171.008 75.881 170.424 C 88.772 166.36 104.959 166.86 116.658 170.271 C 126.331 173.092 134.699 178.089 142.505 184.415 C 146.26 187.458 149.108 191.548 153.057 194.364 C 163.209 201.61 180.741 203.016 191.952 188.565 C 199.542 178.78 201.366 161.891 189.166 150.405" fill="#ff7800"/>
      <path d="M 140.951 97.625 C 137.169 97.625 135.713 100.611 135.713 102.78 L 135.713 106.79 C 131.809 101.539 126.535 98.045 119.332 98.045 C 113.451 98.045 108.437 100.413 104.287 105.148 C 100.138 109.883 98.063 115.598 98.063 122.293 C 98.063 128.961 100.138 134.665 104.287 139.401 C 108.437 144.161 113.451 146.54 119.332 146.54 C 127.052 146.54 132.398 142.335 135.713 137.759 L 135.713 142.073 C 135.713 144.005 137.266 147.075 140.907 147.075 C 144.505 147.075 146.023 143.942 146.023 141.921 L 146.023 102.78 C 146.023 99.46 143.18 97.625 140.951 97.625 M 122.161 137.066 C 114.28 137.066 108.605 129.878 108.605 122.136 C 108.605 113.96 114.448 107.244 122.161 107.244 C 130.485 107.244 135.717 114.699 135.717 122.136 C 135.717 129.998 130.135 137.066 122.161 137.066" fill="white"/>
      <path d="M 342.296 88.508 C 337.484 86.615 333.914 90.236 333.035 92.565 L 315.653 138.153 L 298.273 92.565 C 297.393 90.235 293.823 86.615 289.011 88.508 C 283.818 90.551 284.068 95.435 284.941 97.621 C 284.941 97.621 299.42 135.636 304.112 147.922 C 306.81 154.987 312.103 156.484 315.652 156.49 C 319.202 156.483 324.496 154.987 327.193 147.922 C 331.885 135.636 346.365 97.621 346.365 97.621 C 347.239 95.435 347.489 90.551 342.296 88.508" fill="#2d364c"/>
      <path d="M 268.605 87.979 C 263.365 87.979 261.348 92.115 261.348 95.121 L 261.348 100.676 C 255.939 93.401 248.632 88.561 238.653 88.561 C 230.505 88.561 223.557 91.841 217.808 98.401 C 212.06 104.961 209.185 112.879 209.185 122.155 C 209.185 131.395 212.06 139.297 217.808 145.856 C 223.557 152.453 230.505 155.75 238.653 155.75 C 249.348 155.75 256.755 149.922 261.348 143.582 L 261.348 149.56 C 261.348 152.236 263.5 156.491 268.544 156.491 C 273.53 156.491 275.632 152.148 275.632 149.349 L 275.632 95.121 C 275.632 90.521 271.693 87.979 268.605 87.979 M 242.356 142.841 C 231.438 142.841 223.575 132.882 223.575 122.155 C 223.575 110.827 231.669 101.522 242.356 101.522 C 253.889 101.522 261.137 111.852 261.137 122.155 C 261.137 133.048 253.404 142.841 242.356 142.841" fill="#2d364c"/>
      <path d="M 409.075 87.979 C 403.835 87.979 401.818 92.115 401.818 95.121 L 401.818 100.676 C 396.409 93.401 389.101 88.561 379.123 88.561 C 370.975 88.561 364.027 91.841 358.278 98.401 C 352.53 104.961 349.655 112.879 349.655 122.155 C 349.655 131.395 352.53 139.297 358.278 145.856 C 364.027 152.453 370.974 155.75 379.123 155.75 C 389.818 155.75 397.225 149.922 401.818 143.582 L 401.818 149.56 C 401.818 152.236 403.969 156.491 409.013 156.491 C 413.999 156.491 416.101 152.148 416.101 149.349 L 416.101 95.121 C 416.102 90.521 412.163 87.979 409.075 87.979 M 382.826 142.841 C 371.908 142.841 364.045 132.882 364.045 122.155 C 364.045 110.827 372.139 101.522 382.826 101.522 C 394.359 101.522 401.606 111.852 401.606 122.155 C 401.606 133.048 393.874 142.841 382.826 142.841" fill="#2d364c"/>
      <path d="M 428.14 148.6 C 426.512 147.722 425.259 145.843 425.259 143.339 C 425.259 139.958 427.888 137.202 431.397 137.202 C 432.65 137.202 433.777 137.578 434.653 138.078 C 441.039 142.337 447.677 144.466 453.69 144.466 C 460.202 144.466 463.959 141.71 463.959 137.327 L 463.959 137.077 C 463.959 131.941 456.946 130.44 449.182 128.062 C 439.412 125.304 428.516 121.043 428.516 108.393 L 428.516 108.143 C 428.516 95.619 438.912 87.979 452.063 87.979 C 459.077 87.979 466.464 89.982 472.851 93.364 C 474.979 94.491 476.484 96.495 476.484 99.125 C 476.484 102.633 473.728 105.264 470.221 105.264 C 468.969 105.264 468.216 105.013 467.215 104.512 C 461.829 101.756 456.319 100.002 451.686 100.002 C 445.8 100.002 442.418 102.758 442.418 106.516 L 442.418 106.766 C 442.418 111.651 449.557 113.404 457.322 115.909 C 466.964 118.916 477.861 123.55 477.861 135.451 L 477.861 135.701 C 477.861 149.603 467.089 156.492 453.315 156.492 C 444.922 156.49 435.779 153.861 428.14 148.6 Z" fill="#2d364c"/>
      <path d="M 491.593 137.218 L 491.593 102.847 L 488.704 102.847 C 485.079 102.847 482.204 99.976 482.204 96.355 C 482.204 92.735 485.079 89.865 488.704 89.865 L 491.593 89.865 L 491.593 79.663 C 491.593 75.544 494.579 72.173 498.829 72.173 C 502.954 72.173 505.905 75.544 505.905 79.663 L 505.905 89.865 L 517.204 89.865 C 520.829 89.865 523.829 92.736 523.829 96.355 C 523.829 99.976 520.829 102.847 517.204 102.847 L 505.905 102.847 L 505.905 134.844 C 505.905 140.711 509.329 143.085 514.454 143.085 C 516.204 143.085 517.704 142.71 518.204 142.71 C 521.579 142.71 524.579 145.456 524.579 148.952 C 524.579 151.699 522.704 153.945 520.579 154.82 C 517.329 155.941 514.204 156.566 510.204 156.566 C 499.079 156.566 491.593 151.699 491.593 137.218 Z" fill="#2d364c"/>
    </g>
  </g>
</svg>
